src/assets/img/unsorted/star.svg

<?xml version="1.0" encoding="UTF-8" standalone="no"?>
<svg
   height="18.000122"
   width="18"
   version="1.1"
   id="svg3377"
   sodipodi:docname="star.svg"
   inkscape:version="1.1 (c4e8f9ed74, 2021-05-24)"
   xmlns:inkscape="http://www.inkscape.org/namespaces/inkscape"
   xmlns:sodipodi="http://sodipodi.sourceforge.net/DTD/sodipodi-0.dtd"
   xmlns:xlink="http://www.w3.org/1999/xlink"
   xmlns="http://www.w3.org/2000/svg"
   xmlns:svg="http://www.w3.org/2000/svg">
  <sodipodi:namedview
     id="namedview3379"
     pagecolor="#505050"
     bordercolor="#eeeeee"
     borderopacity="1"
     inkscape:pageshadow="0"
     inkscape:pageopacity="0"
     inkscape:pagecheckerboard="0"
     showgrid="false"
     inkscape:zoom="30.271815"
     inkscape:cx="9.8771746"
     inkscape:cy="12.486863"
     inkscape:current-layer="g3339" />
  <g
     transform="translate(-1.45,1.6501216)"
     id="g3339"
     inkscape:groupmode="layer">
    <use
       height="50"
       transform="matrix(0.36,0,0,0.36,1.45,-1.65)"
       width="50"
       xlink:href="#sprite0"
       id="use3331"
       x="0"
       y="0" />
    <use
       height="17.950001"
       transform="translate(10.8,-1.65)"
       width="8.6499996"
       xlink:href="#sprite1"
       id="use3333"
       x="0"
       y="0" />
    <use
       height="8.8000002"
       transform="translate(5.9,3.35)"
       width="9.5500002"
       xlink:href="#sprite2"
       id="use3335"
       x="0"
       y="0"
       style="display:none" />
    <use
       height="8.8000002"
       transform="translate(5.9,3.35)"
       width="9.5500002"
       xlink:href="#sprite3"
       id="use3337"
       x="0"
       y="0"
       style="display:none" />
    <path
       sodipodi:type="star"
       style="fill:#000000;fill-rule:evenodd;stroke-width:3.77953;-inkscape-stroke:none;stop-color:#000000"
       id="path4421"
       inkscape:flatsided="false"
       sodipodi:sides="5"
       sodipodi:cx="4.1366082"
       sodipodi:cy="4.5438181"
       sodipodi:r1="5.5146594"
       sodipodi:r2="2.7573297"
       sodipodi:arg1="0"
       sodipodi:arg2="0.62831853"
       inkscape:rounded="0.12429311"
       inkscape:randomized="0"
       d="m 9.6512676,4.5438181 c 0,0.4551732 -3.0163887,1.2524749 -3.2839328,1.6207177 C 6.0997907,6.5327787 6.2736271,9.6479146 5.8407317,9.7885708 5.4078363,9.9292271 3.7174419,7.3068507 3.2845465,7.1661945 2.8516511,7.0255382 -0.05730085,8.1534964 -0.32484494,7.7852535 -0.59238903,7.4170107 1.3792785,4.9989913 1.3792785,4.5438181 c 0,-0.4551732 -1.97166753,-2.8731926 -1.70412344,-3.2414355 C -0.05730085,0.93413976 2.8516511,2.062098 3.2845465,1.9214417 3.7174419,1.7807854 5.4078363,-0.84159093 5.8407317,-0.70093468 6.2736271,-0.56027843 6.0997907,2.5548575 6.3673348,2.9231003 6.6348789,3.2913432 9.6512676,4.0886449 9.6512676,4.5438181 Z"
       transform="rotate(-18.00364,17.947704,-14.828976)"
       inkscape:transform-center-x="0.0070516979"
       inkscape:transform-center-y="-0.51943481" />
  </g>
  <defs
     id="defs3375">
    <g
       id="sprite0"
       transform="translate(25,25)">
      <use
         height="50"
         transform="translate(-25,-25)"
         width="50"
         xlink:href="#shape0"
         id="use3341"
         x="0"
         y="0" />
    </g>
    <g
       id="shape0"
       transform="translate(25,25)">
      <path
         d="M 25,0 Q 25,10.3 17.7,17.65 10.35,25 0,25 -10.35,25 -17.65,17.65 -25,10.3 -25,0 q 0,-10.35 7.35,-17.7 7.3,-7.35 17.65,-7.3 10.35,-0.05 17.7,7.3 Q 25,-10.35 25,0"
         fill="#ffffff"
         fill-rule="evenodd"
         stroke="none"
         id="path3344" />
    </g>
    <g
       id="sprite1">
      <use
         height="17.950001"
         width="8.6499996"
         xlink:href="#shape1"
         id="use3347"
         x="0"
         y="0" />
    </g>
    <g
       id="shape1">
      <path
         d="m 0,0 q 3.6,0.15 6.15,2.75 2.5,2.6 2.5,6.25 0,3.65 -2.5,6.25 Q 3.6,17.85 0,17.95 V 0"
         fill="url(#gradient0)"
         fill-rule="evenodd"
         stroke="none"
         id="path3350" />
    </g>
    <linearGradient
       gradientTransform="matrix(0.0053,0,0,0.011,4.3,8.95)"
       gradientUnits="userSpaceOnUse"
       id="gradient0"
       spreadMethod="pad"
       x1="-819.20001"
       x2="819.20001">
      <stop
         offset="0.0"
         stop-color="#ff9966"
         id="stop3353" />
      <stop
         offset="1.0"
         stop-color="#ff9966"
         stop-opacity="0.0"
         id="stop3355" />
    </linearGradient>
    <g
       id="sprite2">
      <use
         height="8.8000002"
         width="9.5500002"
         xlink:href="#shape2"
         id="use3358"
         x="0"
         y="0" />
    </g>
    <g
       id="shape2">
      <path
         d="M 4.75,5.3 7.3,0 q 2.25,1.4 2.25,4 0,2 -1.4,3.4 Q 6.75,8.8 4.75,8.8 2.8,8.8 1.4,7.4 0,6 0,4 0,1.4 2.25,0 l 2.5,5.3"
         fill="#ff3300"
         fill-rule="evenodd"
         stroke="none"
         id="path3361" />
    </g>
    <g
       id="sprite3">
      <use
         height="8.8000002"
         width="9.5500002"
         xlink:href="#shape3"
         id="use3364"
         x="0"
         y="0" />
    </g>
    <g
       id="shape3">
      <path
         d="M 4.75,5.3 7.3,0 q 2.25,1.4 2.25,4 0,2 -1.4,3.4 Q 6.75,8.8 4.75,8.8 2.8,8.8 1.4,7.4 0,6 0,4 0,1.4 2.25,0 l 2.5,5.3"
         fill="url(#gradient1)"
         fill-rule="evenodd"
         stroke="none"
         id="path3367" />
    </g>
    <linearGradient
       gradientTransform="matrix(0.0058,0,0,0.0054,4.75,4.4)"
       gradientUnits="userSpaceOnUse"
       id="gradient1"
       spreadMethod="pad"
       x1="-819.20001"
       x2="819.20001">
      <stop
         offset="0.0"
         stop-color="#ff9966"
         id="stop3370" />
      <stop
         offset="1.0"
         stop-color="#ff9966"
         stop-opacity="0.0"
         id="stop3372" />
    </linearGradient>
  </defs>
</svg>

<svg height="18" width="18" xmlns:xlink="http://www.w3.org/1999/xlink" xmlns="http://www.w3.org/2000/svg"><g transform="translate(-1.45 1.65)"><use height="50" transform="matrix(.36 0 0 .36 1.45 -1.65)" width="50" xlink:href="#a"/><use height="17.95" transform="translate(10.8 -1.65)" width="8.65" xlink:href="#b"/><path style="fill:#000;fill-rule:evenodd;stroke-width:3.77953;-inkscape-stroke:none;stop-color:#000" d="M9.651 4.544c0 .455-3.016 1.252-3.284 1.62-.267.369-.093 3.484-.526 3.625-.433.14-2.124-2.482-2.556-2.623-.433-.14-3.342.987-3.61.62-.267-.369 1.704-2.787 1.704-3.242 0-.455-1.971-2.873-1.704-3.242.268-.368 3.177.76 3.61.62C3.717 1.78 5.408-.843 5.84-.702c.433.14.259 3.256.526 3.624.268.368 3.284 1.166 3.284 1.62Z" transform="rotate(-18.004 17.948 -14.829)"/></g><defs><path d="M25 0q0 10.3-7.3 17.65Q10.35 25 0 25t-17.65-7.35Q-25 10.3-25 0q0-10.35 7.35-17.7Q-10.35-25.05 0-25q10.35-.05 17.7 7.3Q25-10.35 25 0" fill="#fff" fill-rule="evenodd" transform="translate(25 25)" id="d"/><path d="M0 0q3.6.15 6.15 2.75 2.5 2.6 2.5 6.25t-2.5 6.25Q3.6 17.85 0 17.95V0" fill="url(#c)" fill-rule="evenodd" id="e"/><use height="50" width="50" xlink:href="#d" id="a"/><use height="17.95" width="8.65" xlink:href="#e" id="b"/><linearGradient gradientTransform="matrix(.0053 0 0 .011 4.3 8.95)" gradientUnits="userSpaceOnUse" id="c" spreadMethod="pad" x1="-819.2" x2="819.2"><stop offset="0" stop-color="#f96"/><stop offset="1" stop-color="#f96" stop-opacity="0"/></linearGradient></defs></svg>
